X: 1
T: Ungdoms Synden
T: (Boda Polska)
R: polska
C: R\"oj\aas Jonas
Z: Bart Brashers, Apr 2000, bart.brashers@nyckelharpa.org
N: It has a good story associated with it.  R\"oj\aas Jonas wrote it when he
N: was young, and taught it to a friend of his.  Many many years later, the
N: friend played it for Jonas, who said "Wow, what a cool tune, where's it
N: from"  He had completely forgotten it.  So his friend had to re-teach
N: the tune to its composer.  Jonas then named it Ungdomssynden, "the sin
N: of youth".
M: 3/4
L: 1/8
Q: 1/4=100
K: G
c | B>-A G<-B d>g | g>-f f<-a A>B | c2 c/-d/c/A/ F>A | G>-A B/-A/B/c/ d>c |
    B>-A G<-B d>g | g>-f f<-a A>B | c2 c/-d/c/A/ F>A | A<-G G3 :|
|:(g| g>e) e<-c c>e | e<-d B3 (D| D>F) A<-d f>a | g2 g/-a/g/e/ d>g |
      g>-e e<-c c>e | e<-d B3 (D| D>F) A<-d f>a | a<-g g3 :|
